X: 1
T: Gobby O, The
M: 6/8
L: 1/8
R: jig
K: Ador
|:B| c2A AcA| E2A A2c| B2G GBc| dBG GAB|
 c2A AcA| E2A A2g| edc BAG| E2A A2:|
G| A2B c2d| e2f g2e| faf g2e| dBG G2B|
 A2B c2d| e2f g2f| edc BAG| E2A A2||
G| A2B c2d| e2f g2e| faf g2e| dBG GAB|
 c3 cBA| Bcd efg| edc BAG| E2A A2||
